;FLAVOR:Marlin
;TIME:7309
;Filament used: 4.72644m
;Layer height: 0.2
;MINX:79.053
;MINY:69.021
;MINZ:0.2
;MAXX:140.952
;MAXY:130.979
;MAXZ:50
;Generated with Cura_SteamEngine main
M140 S65
M105
M190 S65
M104 S205
M105
M109 S205
M82 ;absolute extrusion mode
; Ender 3 Custom Start G-code
G92 E0 ; Reset Extruder
G28 ; Home all axes
G1 Z2.0 F3000 ; Move Z Axis up little to prevent scratching of Heat Bed
G1 X0.1 Y20 Z0.3 F5000.0 ; Move to start position
G1 X0.1 Y200.0 Z0.3 F1500.0 E15 ; Draw the first line
G1 X0.4 Y200.0 Z0.3 F5000.0 ; Move to side a little
G1 X0.4 Y20 Z0.3 F1500.0 E30 ; Draw the second line
G92 E0 ; Reset Extruder
G1 Z2.0 F3000 ; Move Z Axis up little to prevent scratching of Heat Bed
G1 X5 Y20 Z0.3 F5000.0 ; Move over to prevent blob squish
G92 E0
G92 E0
G1 F2700 E-5
;LAYER_COUNT:250
;LAYER:0
M107
G0 F6000 X86.933 Y79.329 Z0.2
G0 X81.207 Y88.555
;TYPE:SKIRT
G1 F2700 E0
G1 F1200 X81.463 Y87.92 E0.02277
G1 X81.752 Y87.276 E0.04625
G1 X82.372 Y85.983 E0.09394
G1 X82.743 Y85.278 E0.12044
G1 X83.518 Y83.932 E0.1721
G1 X83.905 Y83.3 E0.19675
G1 X84.317 Y82.676 E0.22162
G1 X85 Y81.714 E0.26086
G1 X85.66 Y80.833 E0.29747
G1 X86.133 Y80.249 E0.32247
G1 X86.933 Y79.329 E0.36302
G1 X87.677 Y78.518 E0.39962
G1 X88.192 Y77.998 E0.42396
G1 X89.304 Y76.954 E0.47469
G1 X89.873 Y76.449 E0.5
G1 X90.434 Y75.984 E0.52423
G1 X91.432 Y75.21 E0.56624
G1 X92.283 Y74.586 E0.60134
G1 X92.877 Y74.185 E0.62517
G1 X94.251 Y73.327 E0.67905
G1 X94.88 Y72.96 E0.70327
G1 X95.505 Y72.622 E0.72691
G1 X96.591 Y72.079 E0.76729
G1 X97.58 Y71.618 E0.80358
G1 X98.262 Y71.331 E0.82819
G1 X99.408 Y70.894 E0.86899
G1 X100.4 Y70.544 E0.90397
G1 X101.127 Y70.319 E0.92929
G1 X102.344 Y69.988 E0.97123
G1 X103.394 Y69.732 E1.00718
G1 X104.097 Y69.589 E1.03104
G1 X105.267 Y69.39 E1.07051
G1 X106.391 Y69.231 E1.10827
G1 X107.102 Y69.157 E1.13205
G1 X108.309 Y69.072 E1.17229
G1 X109.409 Y69.025 E1.20891
G1 X110.128 Y69.021 E1.23282
G1 X111.356 Y69.055 E1.27368
G1 X112.428 Y69.113 E1.30939
G1 X113.162 Y69.182 E1.33391
G1 X114.716 Y69.384 E1.38603
G1 X115.422 Y69.495 E1.4098
G1 X116.179 Y69.642 E1.43545
G1 X117.712 Y69.999 E1.4878
G1 X118.414 Y70.183 E1.51194
G1 X119.106 Y70.389 E1.53595
G1 X120.272 Y70.778 E1.57684
G1 X121.471 Y71.216 E1.61929
G1 X122.08 Y71.462 E1.64114
G1 X122.742 Y71.76 E1.66528
G1 X124.036 Y72.382 E1.71304
G1 X124.735 Y72.75 E1.73931
G1 X125.79 Y73.354 E1.77974
G1 X126.701 Y73.906 E1.81517
G1 X127.327 Y74.319 E1.84012
G1 X128.289 Y75.002 E1.87936
G1 X129.16 Y75.654 E1.91554
G1 X129.749 Y76.131 E1.94075
G1 X130.701 Y76.959 E1.98272
G1 X131.504 Y77.698 E2.01901
G1 X132 Y78.19 E2.04225
G1 X133.038 Y79.294 E2.09265
G1 X133.55 Y79.871 E2.11831
G1 X134.014 Y80.431 E2.1425
G1 X134.788 Y81.429 E2.1845
G1 X135.412 Y82.279 E2.21957
G1 X135.819 Y82.88 E2.24372
G1 X136.467 Y83.91 E2.28419
G1 X137.026 Y84.855 E2.32071
G1 X137.372 Y85.493 E2.34485
G1 X137.936 Y86.621 E2.38679
G1 X138.464 Y87.757 E2.42846
G1 X138.711 Y88.339 E2.44949
G1 X138.946 Y88.951 E2.47129
G1 X139.24 Y89.774 E2.50036
G1 X139.466 Y90.434 E2.52356
G1 X139.701 Y91.216 E2.55072
G1 X140.166 Y92.995 E2.61188
G1 X140.368 Y93.933 E2.64379
G1 X140.627 Y95.488 E2.69622
G1 X140.767 Y96.517 E2.73076
G1 X140.835 Y97.162 E2.75233
G1 X140.878 Y97.787 E2.77317
G1 X140.93 Y98.882 E2.80963
G1 X140.95 Y99.477 E2.82943
G1 X140.952 Y100.161 E2.85218
G1 X140.922 Y101.211 E2.88712
G1 X140.841 Y102.701 E2.93675
G1 X140.782 Y103.381 E2.95945
G1 X140.699 Y104.038 E2.98148
G1 X140.565 Y104.945 E3.01197
G1 X140.431 Y105.773 E3.03987
G1 X140.308 Y106.411 E3.06148
G1 X140.166 Y107.028 E3.08254
G1 X139.794 Y108.5 E3.13304
G1 X139.603 Y109.165 E3.15605
G1 X139.408 Y109.75 E3.17656
G1 X138.882 Y111.208 E3.22811
G1 X138.572 Y111.976 E3.25566
G1 X138.072 Y113.091 E3.2963
G1 X137.603 Y114.068 E3.33235
G1 X137.257 Y114.722 E3.35695
G1 X136.482 Y116.068 E3.40861
G1 X136.095 Y116.7 E3.43326
G1 X135.683 Y117.324 E3.45813
G1 X135 Y118.286 E3.49737
G1 X134.34 Y119.167 E3.53399
G1 X133.867 Y119.751 E3.55898
G1 X133.067 Y120.671 E3.59953
G1 X132.323 Y121.482 E3.63614
G1 X131.808 Y122.002 E3.66048
G1 X130.696 Y123.046 E3.71121
G1 X130.127 Y123.551 E3.73651
G1 X129.566 Y124.016 E3.76075
G1 X128.568 Y124.79 E3.80275
G1 X127.717 Y125.414 E3.83785
G1 X127.123 Y125.815 E3.86169
G1 X125.749 Y126.673 E3.91557
G1 X125.12 Y127.04 E3.93979
G1 X124.495 Y127.378 E3.96342
G1 X123.409 Y127.921 E4.00381
G1 X122.42 Y128.382 E4.0401
G1 X121.738 Y128.669 E4.06471
G1 X120.592 Y129.106 E4.1055
G1 X119.6 Y129.456 E4.14049
G1 X118.873 Y129.681 E4.1658
G1 X117.656 Y130.012 E4.20775
G1 X116.606 Y130.268 E4.24369
G1 X115.901 Y130.412 E4.26763
G1 X114.735 Y130.61 E4.30696
G1 X113.615 Y130.769 E4.34459
G1 X112.898 Y130.843 E4.36856
G1 X111.691 Y130.928 E4.40881
G1 X110.591 Y130.975 E4.44543
G1 X109.872 Y130.979 E4.46934
G1 X108.644 Y130.945 E4.5102
G1 X107.572 Y130.887 E4.54591
G1 X106.838 Y130.818 E4.57043
G1 X105.284 Y130.616 E4.62255
G1 X104.578 Y130.505 E4.64632
G1 X103.821 Y130.358 E4.67197
G1 X102.288 Y130.001 E4.72432
G1 X101.586 Y129.817 E4.74846
G1 X100.894 Y129.611 E4.77247
G1 X99.728 Y129.222 E4.81335
G1 X98.529 Y128.784 E4.85581
G1 X97.92 Y128.538 E4.87765
G1 X97.258 Y128.24 E4.9018
G1 X95.962 Y127.617 E4.94963
G1 X95.262 Y127.249 E4.97593
G1 X94.209 Y126.646 E5.01629
G1 X93.299 Y126.094 E5.05169
G1 X92.673 Y125.681 E5.07663
G1 X91.447 Y124.805 E5.12675
G1 X90.837 Y124.344 E5.15218
G1 X90.251 Y123.868 E5.17729
G1 X89.3 Y123.041 E5.21921
G1 X88.496 Y122.302 E5.25553
G1 X88 Y121.81 E5.27877
G1 X86.962 Y120.706 E5.32917
G1 X86.45 Y120.129 E5.35482
G1 X85.986 Y119.569 E5.37901
G1 X85.212 Y118.571 E5.42102
G1 X84.587 Y117.719 E5.45616
G1 X84.174 Y117.109 E5.48067
G1 X83.53 Y116.084 E5.52093
G1 X82.972 Y115.141 E5.55737
G1 X82.627 Y114.505 E5.58144
G1 X82.064 Y113.379 E5.62331
G1 X81.616 Y112.416 E5.65863
G1 X81.339 Y111.759 E5.68235
G1 X80.884 Y110.569 E5.72472
G1 X80.47 Y109.382 E5.76653
G1 X80.203 Y108.487 E5.7976
G1 X79.921 Y107.366 E5.83605
G1 X79.767 Y106.717 E5.85823
G1 X79.628 Y106.027 E5.88164
G1 X79.368 Y104.458 E5.93454
G1 X79.24 Y103.525 E5.96586
G1 X79.168 Y102.835 E5.98893
G1 X79.118 Y102.09 E6.01377
G1 X79.057 Y100.618 E6.06277
G1 X79.053 Y99.839 E6.08868
G1 X79.096 Y98.482 E6.13384
G1 X79.15 Y97.483 E6.16711
G1 X79.22 Y96.701 E6.19323
G1 X79.384 Y95.4 E6.23684
G1 X79.539 Y94.401 E6.27046
G1 X79.672 Y93.719 E6.29357
G1 X79.983 Y92.381 E6.33926
G1 X80.264 Y91.326 E6.37558
G1 X80.366 Y90.97 E6.38789
G1 X80.514 Y90.496 E6.40441
G1 X80.78 Y89.718 E6.43176
G1 X81.207 Y88.555 E6.47296
G1 F2700 E1.47296
G0 F6000 X79.495 Y98.504
G1 F2700 E6.47296
G1 F1200 X79.549 Y97.505 E6.50624
G1 X79.617 Y96.751 E6.53142
G1 X79.781 Y95.45 E6.57503
G1 X79.934 Y94.465 E6.60818
G1 X80.062 Y93.807 E6.63048
G1 X80.281 Y92.844 E6.66333
G1 X80.649 Y91.436 E6.71173
G1 X80.893 Y90.623 E6.73996
G1 X81.155 Y89.856 E6.76692
G1 X81.582 Y88.693 E6.80813
G1 X81.829 Y88.081 E6.83008
G1 X82.113 Y87.449 E6.85312
G1 X82.733 Y86.156 E6.90082
G1 X83.09 Y85.476 E6.92636
G1 X83.698 Y84.413 E6.96709
G1 X84.246 Y83.509 E7.00225
G1 X84.643 Y82.908 E7.02621
G1 X85.514 Y81.689 E7.07604
G1 X85.979 Y81.074 E7.10168
G1 X86.435 Y80.512 E7.12575
G1 X87.457 Y79.344 E7.17737
G1 X87.971 Y78.789 E7.20253
G1 X88.467 Y78.289 E7.22596
G1 X89.57 Y77.253 E7.27629
G1 X90.139 Y76.748 E7.30159
G1 X90.679 Y76.3 E7.32493
G1 X91.677 Y75.526 E7.36694
G1 X92.518 Y74.91 E7.40161
G1 X93.09 Y74.523 E7.42458
G1 X94.15 Y73.856 E7.46623
G1 X95.082 Y73.305 E7.50224
G1 X95.684 Y72.98 E7.525
G1 X96.77 Y72.437 E7.56538
G1 X97.747 Y71.981 E7.60124
G1 X98.404 Y71.705 E7.62494
G1 X99.55 Y71.268 E7.66574
G1 X100.531 Y70.922 E7.70033
G1 X101.232 Y70.705 E7.72474
G1 X102.776 Y70.29 E7.77792
G1 X103.486 Y70.121 E7.80219
G1 X104.164 Y69.983 E7.82521
G1 X105.334 Y69.784 E7.86468
G1 X106.445 Y69.627 E7.902
G1 X107.13 Y69.556 E7.9249
G1 X108.337 Y69.471 E7.96515
G1 X109.424 Y69.425 E8.00133
G1 X110.117 Y69.421 E8.02438
G1 X111.345 Y69.455 E8.06524
G1 X112.404 Y69.513 E8.10052
G1 X113.112 Y69.579 E8.12417
G1 X114.346 Y69.736 E8.16554
G1 X115.36 Y69.891 E8.19966
G1 X116.089 Y70.032 E8.22435
G1 X117.611 Y70.386 E8.27633
G1 X118.313 Y70.57 E8.30047
G1 X118.98 Y70.769 E8.32362
G1 X120.146 Y71.158 E8.3645
G1 X121.332 Y71.591 E8.40649
G1 X121.919 Y71.828 E8.42755
G1 X122.568 Y72.12 E8.45122
G1 X123.862 Y72.742 E8.49897
G1 X124.537 Y73.097 E8.52434
G1 X125.592 Y73.701 E8.56477
G1 X126.492 Y74.247 E8.59978
G1 X127.095 Y74.645 E8.62381
G1 X128.31 Y75.513 E8.67348
G1 X128.919 Y75.973 E8.69886
G1 X129.486 Y76.433 E8.72314
G1 X130.438 Y77.261 E8.76511
G1 X131.232 Y77.991 E8.80098
G1 X131.71 Y78.465 E8.82337
G1 X132.508 Y79.308 E8.86198
G1 X133.251 Y80.137 E8.89901
G1 X133.698 Y80.676 E8.9223
G1 X134.472 Y81.674 E8.9643
G1 X135.088 Y82.514 E8.99895
G1 X135.48 Y83.093 E9.0222
G1 X136.128 Y84.123 E9.06268
G1 X136.681 Y85.057 E9.09878
G1 X137.014 Y85.672 E9.12204
G1 X137.578 Y86.8 E9.16399
G1 X138.1 Y87.924 E9.20521
G1 X138.339 Y88.485 E9.22549
G1 X138.569 Y89.086 E9.24689
G1 X138.861 Y89.904 E9.27578
G1 X139.087 Y90.564 E9.29898
G1 X139.314 Y91.317 E9.32514
G1 X139.779 Y93.096 E9.3863
G1 X139.974 Y94 E9.41706
G1 X140.177 Y95.194 E9.45734
G1 X140.37 Y96.571 E9.50359
G1 X140.436 Y97.192 E9.52436
G1 X140.479 Y97.806 E9.54483
G1 X140.524 Y98.744 E9.57606
G1 X140.55 Y99.491 E9.60092
G1 X140.552 Y100.15 E9.62284
G1 X140.522 Y101.2 E9.65778
G1 X140.442 Y102.678 E9.70701
G1 X140.384 Y103.334 E9.72891
G1 X140.303 Y103.979 E9.75053
G1 X140.169 Y104.886 E9.78103
G1 X140.036 Y105.709 E9.80876
G1 X139.918 Y106.323 E9.82955
G1 X139.778 Y106.93 E9.85027
G1 X139.406 Y108.402 E9.90077
G1 X139.222 Y109.043 E9.92295
G1 X139.032 Y109.614 E9.94297
G1 X138.506 Y111.072 E9.99452
G1 X138.207 Y111.812 E10.02106
G1 X137.707 Y112.927 E10.06171
G1 X137.243 Y113.893 E10.09735
G1 X136.91 Y114.524 E10.12108
G1 X136.302 Y115.587 E10.16181
G1 X135.754 Y116.491 E10.19697
G1 X135.357 Y117.092 E10.22093
G1 X134.486 Y118.311 E10.27076
G1 X134.021 Y118.926 E10.2964
G1 X133.565 Y119.488 E10.32047
G1 X132.543 Y120.656 E10.37209
G1 X132.029 Y121.211 E10.39725
G1 X131.533 Y121.711 E10.42068
G1 X130.43 Y122.747 E10.47101
G1 X129.861 Y123.252 E10.49631
G1 X129.321 Y123.7 E10.51965
G1 X128.323 Y124.474 E10.56165
G1 X127.482 Y125.09 E10.59633
G1 X126.91 Y125.477 E10.6193
G1 X125.85 Y126.144 E10.66095
G1 X124.918 Y126.695 E10.69696
G1 X124.316 Y127.02 E10.71972
G1 X123.23 Y127.563 E10.7601
G1 X122.253 Y128.019 E10.79596
G1 X121.596 Y128.295 E10.81966
G1 X120.45 Y128.732 E10.86046
G1 X119.469 Y129.078 E10.89505
G1 X118.768 Y129.295 E10.91946
G1 X117.224 Y129.71 E10.97264
G1 X116.514 Y129.879 E10.99691
G1 X115.834 Y130.017 E11.01999
G1 X114.668 Y130.215 E11.05933
G1 X113.561 Y130.372 E11.09651
G1 X112.87 Y130.444 E11.11962
G1 X111.663 Y130.529 E11.15987
G1 X110.576 Y130.575 E11.19605
G1 X109.883 Y130.579 E11.2191
G1 X108.655 Y130.545 E11.25996
G1 X107.596 Y130.487 E11.29524
G1 X106.888 Y130.421 E11.31889
G1 X105.654 Y130.264 E11.36026
G1 X104.64 Y130.109 E11.39438
G1 X103.911 Y129.968 E11.41907
G1 X102.389 Y129.614 E11.47105
G1 X101.687 Y129.43 E11.49518
G1 X101.02 Y129.231 E11.51833
G1 X99.854 Y128.842 E11.55922
G1 X98.668 Y128.409 E11.60121
G1 X98.081 Y128.172 E11.62227
G1 X97.432 Y127.879 E11.64595
G1 X96.136 Y127.256 E11.69378
G1 X95.46 Y126.902 E11.71916
G1 X94.407 Y126.299 E11.75951
G1 X93.508 Y125.753 E11.7945
G1 X92.905 Y125.355 E11.81853
G1 X91.688 Y124.486 E11.86827
G1 X91.078 Y124.025 E11.8937
G1 X90.513 Y123.567 E11.91789
G1 X89.562 Y122.74 E11.95981
G1 X88.768 Y122.009 E11.9957
G1 X88.29 Y121.535 E12.01809
G1 X87.492 Y120.692 E12.0567
G1 X86.749 Y119.863 E12.09373
G1 X86.302 Y119.324 E12.11702
G1 X85.528 Y118.326 E12.15902
G1 X84.91 Y117.484 E12.19376
G1 X84.513 Y116.896 E12.21736
G1 X83.695 Y115.585 E12.26875
G1 X83.317 Y114.939 E12.29365
G1 X82.985 Y114.326 E12.31683
G1 X82.268 Y112.88 E12.37052
G1 X81.979 Y112.25 E12.39357
G1 X81.713 Y111.616 E12.41644
G1 X81.258 Y110.426 E12.45881
G1 X80.848 Y109.252 E12.50017
G1 X80.591 Y108.389 E12.53012
G1 X80.309 Y107.268 E12.56857
G1 X80.157 Y106.625 E12.59054
G1 X80.022 Y105.96 E12.61311
G1 X79.764 Y104.404 E12.66557
G1 X79.636 Y103.471 E12.69689
G1 X79.566 Y102.806 E12.71913
G1 X79.518 Y102.074 E12.74353
G1 X79.457 Y100.602 E12.79253
G1 X79.453 Y99.851 E12.81751
G1 X79.495 Y98.504 E12.86234
G0 F6000 X79.852 Y99.863
G1 F1200 X79.884 Y98.776 E12.89851
G1 X79.949 Y97.526 E12.94014
G1 X80.014 Y96.801 E12.96435
G1 X80.178 Y95.5 E13.00796
G1 X80.329 Y94.529 E13.04064
G1 X80.452 Y93.896 E13.06209
G1 X80.756 Y92.586 E13.10682
G1 X80.978 Y91.747 E13.13569
G1 X81.136 Y91.191 E13.15491
G1 X81.272 Y90.751 E13.17023
G1 X81.531 Y89.993 E13.19687
G1 X81.958 Y88.83 E13.23808
G1 X82.195 Y88.242 E13.25916
G1 X82.474 Y87.622 E13.28178
G1 X83.094 Y86.329 E13.32947
G1 X83.437 Y85.675 E13.35403
G1 X84.2 Y84.349 E13.40492
G1 X84.587 Y83.717 E13.42956
G1 X84.969 Y83.139 E13.45261
G1 X85.652 Y82.177 E13.49185
G1 X86.298 Y81.315 E13.52768
G1 X86.737 Y80.774 E13.55085
G1 X87.75 Y79.616 E13.60202
G1 X88.264 Y79.061 E13.62718
G1 X88.741 Y78.579 E13.64973
G1 X89.599 Y77.768 E13.689
G1 X90.404 Y77.047 E13.72495
G1 X90.924 Y76.616 E13.74741
G1 X91.922 Y75.842 E13.78942
G1 X92.752 Y75.234 E13.82364
G1 X93.303 Y74.862 E13.84575
G1 X94.363 Y74.195 E13.8874
G1 X95.284 Y73.651 E13.92298
G1 X95.862 Y73.338 E13.94484
G1 X96.948 Y72.795 E13.98523
G1 X97.914 Y72.344 E14.02068
G1 X98.547 Y72.078 E14.04352
G1 X99.693 Y71.641 E14.08431
G1 X100.663 Y71.299 E14.11852
G1 X101.337 Y71.091 E14.14198
G1 X102.869 Y70.679 E14.19475
G1 X103.579 Y70.51 E14.21902
G1 X104.231 Y70.377 E14.24116
G1 X105.401 Y70.178 E14.28063
G1 X106.499 Y70.023 E14.31751
G1 X107.158 Y69.955 E14.33955
G1 X108.365 Y69.87 E14.37979
G1 X109.439 Y69.824 E14.41554
G1 X110.106 Y69.821 E14.43773
G1 X111.334 Y69.855 E14.47859
G1 X112.38 Y69.912 E14.51343
G1 X113.061 Y69.976 E14.53618
G1 X114.295 Y70.133 E14.57755
G1 X115.298 Y70.286 E14.6113
G1 X116 Y70.421 E14.63508
G1 X117.209 Y70.699 E14.67634
G1 X118.211 Y70.957 E14.71075
G1 X118.853 Y71.148 E14.73303
G1 X120.019 Y71.537 E14.77391
G1 X121.193 Y71.966 E14.81548
G1 X121.758 Y72.195 E14.83576
G1 X122.395 Y72.481 E14.85898
G1 X123.689 Y73.103 E14.90674
G1 X124.338 Y73.444 E14.93112
G1 X125.393 Y74.048 E14.97155
G1 X126.283 Y74.588 E15.00618
G1 X126.864 Y74.971 E15.02932
G1 X127.826 Y75.654 E15.06856
G1 X128.678 Y76.292 E15.10397
G1 X129.224 Y76.735 E15.12735
G1 X130.176 Y77.563 E15.16932
G1 X130.959 Y78.284 E15.20472
G1 X131.419 Y78.74 E15.22626
G1 X132.217 Y79.583 E15.26487
G1 X132.951 Y80.402 E15.30145
G1 X133.382 Y80.921 E15.32389
G1 X134.156 Y81.919 E15.36589
G1 X134.765 Y82.749 E15.40013
G1 X135.142 Y83.306 E15.4225
G1 X135.79 Y84.336 E15.46298
G1 X136.336 Y85.259 E15.49864
G1 X136.656 Y85.85 E15.521
G1 X137.22 Y86.978 E15.56294
G1 X137.737 Y88.091 E15.60376
G1 X137.966 Y88.63 E15.62324
G1 X138.193 Y89.221 E15.6443
G1 X138.435 Y89.896 E15.66815
G1 X138.709 Y90.694 E15.69621
G1 X138.927 Y91.419 E15.72139
G1 X139.392 Y93.198 E15.78255
G1 X139.58 Y94.067 E15.81212
G1 X139.783 Y95.261 E15.8524
G1 X139.974 Y96.625 E15.89821
G1 X140.037 Y97.223 E15.91821
G1 X140.079 Y97.825 E15.93828
G1 X140.13 Y98.909 E15.97437
G1 X140.15 Y99.504 E15.99418
G1 X140.152 Y100.138 E16.01526
G1 X140.11 Y101.475 E16.05975
G1 X140.043 Y102.656 E16.0991
G1 X139.987 Y103.286 E16.12013
G1 X139.907 Y103.921 E16.14142
G1 X139.751 Y104.975 E16.17686
G1 X139.642 Y105.645 E16.19944
G1 X139.528 Y106.236 E16.21945
G1 X139.39 Y106.832 E16.2398
G1 X139.018 Y108.304 E16.2903
G1 X138.842 Y108.92 E16.31161
G1 X138.656 Y109.478 E16.33117
