;FLAVOR:Marlin
;TIME:4790
;Filament used: 2.95718m
;Layer height: 0.2
;MINX:89
;MINY:71.013
;MINZ:0.2
;MAXX:130.999
;MAXY:128.987
;MAXZ:27
;Generated with Cura_SteamEngine main
M140 S85
M105
M190 S85
M104 S235
M105
M109 S235
M82 ;absolute extrusion mode
; Ender 3 Custom Start G-code
G92 E0 ; Reset Extruder
G28 ; Home all axes
G1 Z2.0 F3000 ; Move Z Axis up little to prevent scratching of Heat Bed
G1 X0.1 Y20 Z0.3 F5000.0 ; Move to start position
G1 X0.1 Y200.0 Z0.3 F1500.0 E15 ; Draw the first line
G1 X0.4 Y200.0 Z0.3 F5000.0 ; Move to side a little
G1 X0.4 Y20 Z0.3 F1500.0 E30 ; Draw the second line
G92 E0 ; Reset Extruder
G1 Z2.0 F3000 ; Move Z Axis up little to prevent scratching of Heat Bed
G1 X5 Y20 Z0.3 F5000.0 ; Move over to prevent blob squish
G92 E0
G92 E0
G1 F2700 E-5
;LAYER_COUNT:135
;LAYER:0
M107
G0 F6000 X91.574 Y77.993 Z0.2
G0 X89.001 Y85.581
;TYPE:SKIRT
G1 F2700 E0
G1 F900 X89.011 Y84.892 E0.02292
G1 X89.065 Y83.956 E0.0541
G1 X89.198 Y83.028 E0.08528
G1 X89.41 Y82.114 E0.11649
G1 X89.698 Y81.222 E0.14767
G1 X90.062 Y80.357 E0.17888
G1 X90.498 Y79.527 E0.21006
G1 X91.003 Y78.737 E0.24125
G1 X91.574 Y77.993 E0.27244
G1 X92.206 Y77.3 E0.30364
G1 X92.895 Y76.663 E0.33485
G1 X93.635 Y76.087 E0.36603
G1 X94.168 Y75.732 E0.38733
G1 X95.387 Y74.975 E0.43506
G1 X96.016 Y74.611 E0.45923
G1 X96.53 Y74.332 E0.47868
G1 X97.195 Y74.001 E0.50339
G1 X98.311 Y73.482 E0.54433
G1 X99.027 Y73.179 E0.57018
G1 X100.185 Y72.737 E0.61141
G1 X101.06 Y72.432 E0.64223
G1 X101.715 Y72.231 E0.66502
G1 X102.904 Y71.907 E0.70601
G1 X103.784 Y71.692 E0.73614
G1 X104.491 Y71.55 E0.76012
G1 X105.733 Y71.341 E0.80201
G1 X106.62 Y71.216 E0.8318
G1 X107.324 Y71.145 E0.85534
G1 X108.905 Y71.042 E0.90803
G1 X109.597 Y71.017 E0.93106
G1 X110.262 Y71.013 E0.95318
G1 X111.017 Y71.037 E0.97831
G1 X112.2 Y71.103 E1.01771
G1 X112.975 Y71.174 E1.0436
G1 X114.178 Y71.327 E1.08393
G1 X115.077 Y71.466 E1.11419
G1 X115.779 Y71.603 E1.13798
G1 X117.036 Y71.891 E1.18087
G1 X117.883 Y72.11 E1.20997
G1 X118.54 Y72.308 E1.23279
G1 X119.706 Y72.699 E1.27369
G1 X120.59 Y73.022 E1.305
G1 X121.25 Y73.293 E1.32873
G1 X122.374 Y73.798 E1.36971
G1 X123.293 Y74.241 E1.40364
G1 X123.892 Y74.557 E1.42617
G1 X124.558 Y74.94 E1.45172
G1 X125.706 Y75.64 E1.49644
G1 X126.485 Y76.162 E1.52763
G1 X127.217 Y76.749 E1.55884
G1 X127.896 Y77.395 E1.59001
G1 X128.518 Y78.097 E1.62121
G1 X129.078 Y78.85 E1.65242
G1 X129.571 Y79.648 E1.68362
G1 X129.995 Y80.484 E1.71479
G1 X130.346 Y81.354 E1.746
G1 X130.621 Y82.25 E1.77717
G1 X130.82 Y83.167 E1.80838
G1 X130.939 Y84.097 E1.83956
G1 X130.977 Y84.808 E1.86324
G1 X130.998 Y85.838 E1.89751
G1 X130.999 Y114.419 E2.84812
G1 X130.989 Y115.108 E2.87104
G1 X130.935 Y116.044 E2.90222
G1 X130.802 Y116.972 E2.9334
G1 X130.59 Y117.886 E2.96461
G1 X130.302 Y118.778 E2.99578
G1 X129.938 Y119.643 E3.027
G1 X129.502 Y120.473 E3.05818
G1 X128.997 Y121.263 E3.08936
G1 X128.426 Y122.007 E3.12056
G1 X127.794 Y122.7 E3.15175
G1 X127.105 Y123.337 E3.18296
G1 X126.365 Y123.913 E3.21415
G1 X125.832 Y124.268 E3.23545
G1 X124.613 Y125.025 E3.28318
G1 X123.984 Y125.389 E3.30735
G1 X123.47 Y125.668 E3.3268
G1 X122.805 Y125.999 E3.35151
G1 X121.689 Y126.518 E3.39244
G1 X120.973 Y126.821 E3.4183
G1 X119.815 Y127.263 E3.45953
G1 X118.94 Y127.568 E3.49035
G1 X118.285 Y127.769 E3.51314
G1 X117.096 Y128.093 E3.55412
G1 X116.216 Y128.308 E3.58425
G1 X115.508 Y128.451 E3.60828
G1 X114.271 Y128.659 E3.65
G1 X113.387 Y128.783 E3.67969
G1 X112.676 Y128.855 E3.70346
G1 X111.449 Y128.939 E3.74436
G1 X110.395 Y128.983 E3.77945
G1 X109.729 Y128.987 E3.8016
G1 X108.983 Y128.963 E3.82643
G1 X107.8 Y128.897 E3.86583
G1 X107.025 Y128.826 E3.89172
G1 X105.822 Y128.673 E3.93205
G1 X104.923 Y128.534 E3.96231
G1 X104.221 Y128.397 E3.9861
G1 X102.964 Y128.109 E4.02899
G1 X102.117 Y127.89 E4.05809
G1 X101.46 Y127.692 E4.08091
G1 X100.294 Y127.301 E4.12181
G1 X99.41 Y126.978 E4.15312
G1 X98.76 Y126.711 E4.17649
G1 X97.365 Y126.08 E4.22741
G1 X96.703 Y125.757 E4.25191
G1 X96.101 Y125.44 E4.27454
G1 X95.442 Y125.06 E4.29984
G1 X94.294 Y124.36 E4.34456
G1 X93.515 Y123.838 E4.37575
G1 X92.783 Y123.251 E4.40696
G1 X92.104 Y122.605 E4.43813
G1 X91.482 Y121.903 E4.46933
G1 X90.922 Y121.15 E4.50054
G1 X90.429 Y120.352 E4.53174
G1 X90.005 Y119.516 E4.56291
G1 X89.654 Y118.646 E4.59412
G1 X89.379 Y117.75 E4.62529
G1 X89.18 Y116.833 E4.6565
G1 X89.061 Y115.903 E4.68768
G1 X89.023 Y115.188 E4.7115
G1 X89 Y113.917 E4.75378
G1 X89.001 Y85.581 E5.69624
G0 F6000 X89.401 Y85.587
G1 F900 X89.411 Y84.898 E5.71915
G1 X89.464 Y83.979 E5.74977
G1 X89.597 Y83.068 E5.78039
G1 X89.809 Y82.172 E5.81102
G1 X90.097 Y81.298 E5.84162
G1 X90.46 Y80.452 E5.87224
G1 X90.895 Y79.64 E5.90288
G1 X91.399 Y78.87 E5.93349
G1 X91.968 Y78.146 E5.96412
G1 X92.598 Y77.474 E5.99475
G1 X93.283 Y76.86 E6.02535
G1 X94.38 Y76.071 E6.07029
G1 X95.588 Y75.321 E6.11759
G1 X96.217 Y74.957 E6.14176
G1 X96.712 Y74.688 E6.16049
G1 X97.364 Y74.364 E6.18471
G1 X98.48 Y73.845 E6.22565
G1 X99.17 Y73.553 E6.25057
G1 X100.328 Y73.111 E6.29179
G1 X101.189 Y72.81 E6.32213
G1 X101.82 Y72.617 E6.34407
G1 X103.009 Y72.293 E6.38506
G1 X103.876 Y72.082 E6.41474
G1 X104.557 Y71.944 E6.43785
G1 X105.799 Y71.735 E6.47974
G1 X106.673 Y71.612 E6.5091
G1 X107.351 Y71.544 E6.53176
G1 X108.578 Y71.46 E6.57267
G1 X109.611 Y71.417 E6.60705
G1 X110.252 Y71.413 E6.62837
G1 X110.994 Y71.436 E6.65306
G1 X112.177 Y71.502 E6.69247
G1 X112.924 Y71.571 E6.71742
G1 X114.127 Y71.724 E6.75776
G1 X115.014 Y71.861 E6.78761
G1 X115.689 Y71.993 E6.81049
G1 X116.946 Y72.281 E6.85338
G1 X117.78 Y72.496 E6.88202
G1 X118.413 Y72.687 E6.90401
G1 X119.579 Y73.078 E6.94492
G1 X120.45 Y73.397 E6.97577
G1 X121.086 Y73.658 E6.99863
G1 X122.21 Y74.163 E7.03962
G1 X123.117 Y74.6 E7.0731
G1 X123.695 Y74.905 E7.09484
G1 X124.349 Y75.282 E7.11995
G1 X125.497 Y75.982 E7.16467
G1 X126.262 Y76.495 E7.19531
G1 X126.979 Y77.072 E7.22592
G1 X127.643 Y77.71 E7.25654
G1 X128.25 Y78.402 E7.28716
G1 X128.794 Y79.145 E7.31779
G1 X129.271 Y79.932 E7.34839
G1 X129.679 Y80.758 E7.37904
G1 X130.013 Y81.615 E7.40963
G1 X130.272 Y82.499 E7.44027
G1 X130.453 Y83.402 E7.4709
G1 X130.555 Y84.317 E7.50152
G1 X130.577 Y84.816 E7.51813
G1 X130.6 Y86.062 E7.55958
G1 X130.599 Y114.413 E8.50254
G1 X130.589 Y115.102 E8.52546
G1 X130.536 Y116.021 E8.55608
G1 X130.403 Y116.932 E8.5867
G1 X130.191 Y117.828 E8.61732
G1 X129.903 Y118.702 E8.64793
G1 X129.54 Y119.548 E8.67855
G1 X129.105 Y120.36 E8.70918
G1 X128.601 Y121.13 E8.73979
G1 X128.032 Y121.854 E8.77042
G1 X127.402 Y122.526 E8.80106
G1 X126.717 Y123.14 E8.83165
G1 X125.62 Y123.929 E8.8766
G1 X124.412 Y124.679 E8.92389
G1 X123.783 Y125.043 E8.94806
G1 X123.288 Y125.312 E8.9668
G1 X122.636 Y125.636 E8.99101
G1 X121.52 Y126.155 E9.03195
G1 X120.83 Y126.447 E9.05687
G1 X119.672 Y126.889 E9.09809
G1 X118.811 Y127.19 E9.12843
G1 X118.18 Y127.383 E9.15038
G1 X116.991 Y127.707 E9.19137
G1 X116.124 Y127.918 E9.22104
G1 X115.442 Y128.056 E9.24419
G1 X114.205 Y128.264 E9.28591
G1 X113.334 Y128.387 E9.31517
G1 X112.649 Y128.456 E9.33806
G1 X111.422 Y128.54 E9.37897
G1 X110.381 Y128.583 E9.41362
G1 X109.739 Y128.587 E9.43498
G1 X109.006 Y128.564 E9.45937
G1 X107.823 Y128.498 E9.49878
G1 X107.076 Y128.429 E9.52373
G1 X105.873 Y128.276 E9.56406
G1 X104.986 Y128.139 E9.59391
G1 X104.311 Y128.007 E9.61679
G1 X103.054 Y127.719 E9.65968
G1 X102.22 Y127.504 E9.68833
G1 X101.587 Y127.313 E9.71032
G1 X100.421 Y126.922 E9.75122
G1 X99.55 Y126.603 E9.78207
G1 X98.924 Y126.346 E9.80458
G1 X97.541 Y125.721 E9.85506
G1 X96.879 Y125.398 E9.87956
G1 X96.298 Y125.092 E9.9014
G1 X95.651 Y124.718 E9.92625
G1 X94.503 Y124.018 E9.97097
G1 X93.738 Y123.505 E10.00161
G1 X93.021 Y122.928 E10.03222
G1 X92.357 Y122.29 E10.06285
G1 X91.75 Y121.598 E10.09346
G1 X91.206 Y120.855 E10.12409
G1 X90.729 Y120.068 E10.1547
G1 X90.321 Y119.242 E10.18534
G1 X89.987 Y118.385 E10.21593
G1 X89.728 Y117.501 E10.24657
G1 X89.547 Y116.598 E10.2772
G1 X89.445 Y115.683 E10.30782
G1 X89.423 Y115.18 E10.32457
G1 X89.4 Y113.917 E10.36658
G1 X89.401 Y85.587 E11.30884
G0 F6000 X89.801 Y85.593
G1 F900 X89.811 Y84.904 E11.33176
G1 X89.864 Y84.002 E11.36181
G1 X89.997 Y83.109 E11.39184
G1 X90.208 Y82.231 E11.42188
G1 X90.496 Y81.375 E11.45192
G1 X90.858 Y80.548 E11.48194
G1 X91.293 Y79.756 E11.512
G1 X91.795 Y79.006 E11.54201
G1 X92.362 Y78.303 E11.57205
G1 X92.989 Y77.653 E11.60209
G1 X93.671 Y77.061 E11.63213
G1 X94.593 Y76.41 E11.66967
G1 X95.788 Y75.668 E11.71645
G1 X96.417 Y75.304 E11.74062
G1 X96.894 Y75.045 E11.75868
G1 X97.533 Y74.726 E11.78243
G1 X98.649 Y74.207 E11.82337
G1 X99.313 Y73.927 E11.84733
G1 X100.471 Y73.485 E11.88856
G1 X101.318 Y73.189 E11.9184
G1 X101.925 Y73.003 E11.93952
G1 X103.114 Y72.679 E11.9805
G1 X103.968 Y72.471 E12.00974
G1 X104.623 Y72.338 E12.03197
G1 X105.865 Y72.129 E12.07386
G1 X106.726 Y72.009 E12.10277
G1 X107.378 Y71.943 E12.12457
G1 X108.605 Y71.859 E12.16547
G1 X109.626 Y71.817 E12.19946
G1 X110.243 Y71.813 E12.21998
G1 X110.972 Y71.836 E12.24424
G1 X112.155 Y71.902 E12.28365
G1 X112.874 Y71.968 E12.30767
G1 X114.077 Y72.121 E12.348
G1 X114.95 Y72.256 E12.37738
G1 X115.6 Y72.383 E12.39941
G1 X116.857 Y72.671 E12.4423
G1 X117.676 Y72.883 E12.47044
G1 X118.286 Y73.066 E12.49162
G1 X119.452 Y73.457 E12.53252
G1 X120.31 Y73.771 E12.56291
G1 X120.922 Y74.023 E12.58493
G1 X122.342 Y74.666 E12.63677
G1 X122.942 Y74.959 E12.65898
G1 X123.498 Y75.253 E12.6799
G1 X124.141 Y75.623 E12.70457
G1 X125.289 Y76.323 E12.74929
G1 X126.039 Y76.827 E12.77935
G1 X126.741 Y77.395 E12.80938
G1 X127.39 Y78.023 E12.83942
G1 X127.981 Y78.706 E12.86946
G1 X128.509 Y79.439 E12.89951
G1 X128.97 Y80.215 E12.92953
G1 X129.361 Y81.029 E12.95956
G1 X129.678 Y81.875 E12.98961
G1 X129.919 Y82.745 E13.01964
G1 X130.083 Y83.633 E13.04967
G1 X130.177 Y84.824 E13.08941
G1 X130.2 Y86.062 E13.13059
G1 X130.199 Y114.407 E14.07335
G1 X130.189 Y115.096 E14.09627
G1 X130.136 Y115.998 E14.12632
G1 X130.003 Y116.891 E14.15635
G1 X129.792 Y117.769 E14.18638
G1 X129.504 Y118.625 E14.21642
G1 X129.142 Y119.452 E14.24645
G1 X128.707 Y120.244 E14.2765
G1 X128.205 Y120.994 E14.30652
G1 X127.638 Y121.697 E14.33656
G1 X127.011 Y122.347 E14.3666
G1 X126.329 Y122.939 E14.39663
G1 X125.407 Y123.59 E14.43417
G1 X124.212 Y124.332 E14.48096
G1 X123.583 Y124.696 E14.50513
G1 X123.106 Y124.955 E14.52318
G1 X122.467 Y125.274 E14.54693
G1 X121.351 Y125.793 E14.58787
G1 X120.687 Y126.073 E14.61184
G1 X119.529 Y126.515 E14.65306
G1 X118.682 Y126.811 E14.68291
G1 X118.075 Y126.997 E14.70402
G1 X116.886 Y127.321 E14.74501
G1 X116.032 Y127.529 E14.77424
G1 X115.375 Y127.662 E14.79654
G1 X114.138 Y127.87 E14.83826
G1 X113.281 Y127.991 E14.86705
G1 X112.622 Y128.057 E14.88907
G1 X111.395 Y128.141 E14.92998
G1 X110.367 Y128.183 E14.9642
G1 X109.749 Y128.187 E14.98476
G1 X109.028 Y128.164 E15.00875
G1 X107.845 Y128.098 E15.04816
G1 X107.126 Y128.032 E15.07217
G1 X105.923 Y127.879 E15.11251
G1 X105.05 Y127.744 E15.14189
G1 X104.4 Y127.617 E15.16391
G1 X103.143 Y127.329 E15.20681
G1 X102.324 Y127.117 E15.23494
G1 X101.714 Y126.934 E15.25613
G1 X100.548 Y126.543 E15.29703
G1 X99.69 Y126.229 E15.32742
G1 X99.087 Y125.981 E15.3491
G1 X98.018 Y125.502 E15.38806
G1 X97.054 Y125.038 E15.42365
G1 X96.496 Y124.744 E15.44463
G1 X95.859 Y124.377 E15.46908
G1 X94.711 Y123.677 E15.5138
G1 X93.961 Y123.173 E15.54385
G1 X93.259 Y122.605 E15.57389
G1 X92.61 Y121.977 E15.60392
G1 X92.019 Y121.294 E15.63396
G1 X91.491 Y120.561 E15.66401
G1 X91.03 Y119.785 E15.69403
G1 X90.639 Y118.971 E15.72407
G1 X90.322 Y118.125 E15.75411
G1 X90.081 Y117.255 E15.78414
G1 X89.917 Y116.367 E15.81418
G1 X89.823 Y115.172 E15.85404
G1 X89.8 Y113.917 E15.89579
G1 X89.801 Y85.593 E16.83785
G1 F2700 E11.83785
G0 F6000 X99.347 Y92.653
G0 X114.948 Y96.741
G0 X115.291 Y96.6
G1 F2700 E16.83785
G1 F900 X116.2 Y96.6 E16.86809
G1 X116.2 Y98.943 E16.94601
G1 X116.073 Y98.326 E16.96697
G1 X115.932 Y97.92 E16.98126
G1 X115.685 Y97.317 E17.00293
G1 X115.44 Y96.823 E17.02127
G1 X115.291 Y96.6 E17.03019
G0 F6000 X114.498 Y96.2
G1 F900 X116.6 Y96.2 E17.10011
G1 X116.6 Y103.8 E17.35288
G1 X114.498 Y103.8 E17.4228
G1 X114.88 Y103.295 E17.44386
G1 X115.162 Y102.857 E17.46118
G1 X115.315 Y102.532 E17.47313
G1 X115.562 Y101.929 E17.4948
G1 X115.722 Y101.433 E17.51214
G1 X115.787 Y101.082 E17.52401
G1 X115.871 Y100.442 E17.54548
G1 X115.899 Y99.922 E17.5628
G1 X115.871 Y99.558 E17.57494
G1 X115.787 Y98.918 E17.59641
G1 X115.68 Y98.408 E17.61374
G1 X115.562 Y98.071 E17.62562
G1 X115.315 Y97.468 E17.64729
G1 X115.081 Y97.003 E17.66461
G1 X114.88 Y96.705 E17.67656
G1 X114.498 Y96.2 E17.69762
G0 F6000 X113.531 Y95.8
G1 F900 X117 Y95.8 E17.813
G1 X117 Y104.2 E18.09239
G1 X113.531 Y104.2 E18.20777
G1 X113.946 Y103.835 E18.22615
G1 X114.162 Y103.581 E18.23724
G1 X114.561 Y103.054 E18.25922
G1 X114.823 Y102.641 E18.27549
G1 X114.945 Y102.38 E18.28507
G1 X115.192 Y101.777 E18.30675
G1 X115.34 Y101.311 E18.32301
G1 X115.39 Y101.03 E18.3325
G1 X115.474 Y100.39 E18.35397
G1 X115.498 Y99.901 E18.37026
G1 X115.474 Y99.61 E18.37997
G1 X115.39 Y98.97 E18.40144
G1 X115.287 Y98.491 E18.41773
G1 X115.192 Y98.223 E18.42719
G1 X114.945 Y97.62 E18.44886
G1 X114.723 Y97.184 E18.46513
G1 X114.561 Y96.946 E18.47471
G1 X114.162 Y96.419 E18.4967
G1 X113.835 Y96.054 E18.513
G1 X113.531 Y95.8 E18.52617
G0 F6000 X112.185 Y95.4
G1 F900 X117.4 Y95.4 E18.69962
G1 X117.4 Y104.6 E19.00562
G1 X112.185 Y104.6 E19.17907
G1 X112.812 Y104.242 E19.20308
G1 X113.339 Y103.843 E19.22507
G1 X113.677 Y103.537 E19.24023
G1 X113.843 Y103.339 E19.24882
G1 X114.242 Y102.812 E19.27081
G1 X114.575 Y102.229 E19.29314
G1 X114.822 Y101.626 E19.31481
G1 X114.994 Y100.978 E19.33711
G1 X115.078 Y100.338 E19.35858
G1 X115.078 Y99.662 E19.38107
G1 X114.994 Y99.022 E19.40254
G1 X114.822 Y98.374 E19.42483
G1 X114.575 Y97.771 E19.44651
G1 X114.242 Y97.188 E19.46884
G1 X113.843 Y96.661 E19.49082
G1 X113.537 Y96.323 E19.50599
G1 X113.339 Y96.157 E19.51458
G1 X112.812 Y95.758 E19.53657
G1 X112.185 Y95.4 E19.56058
G1 F2700 E14.56058
G0 F6000 X107.67 Y96.396
G1 F2700 E19.56058
G1 F900 X107.143 Y96.795 E19.58257
G1 X106.795 Y97.143 E19.59893
G1 X106.396 Y97.67 E19.62092
G1 X106.165 Y98.075 E19.63643
G1 X105.918 Y98.678 E19.6581
G1 X105.799 Y99.126 E19.67352
G1 X105.715 Y99.766 E19.69499
G1 X105.715 Y100.234 E19.71055
G1 X105.799 Y100.874 E19.73202
G1 X105.918 Y101.322 E19.74744
G1 X106.165 Y101.925 E19.76911
G1 X106.396 Y102.33 E19.78462
G1 X106.795 Y102.857 E19.8066
G1 X107.143 Y103.205 E19.82297
G1 X107.67 Y103.604 E19.84496
G1 X108.075 Y103.835 E19.86047
G1 X108.678 Y104.082 E19.88214
G1 X109.126 Y104.201 E19.89756
G1 X109.766 Y104.285 E19.91903
G1 X110.234 Y104.285 E19.93459
G1 X110.874 Y104.201 E19.95606
G1 X111.322 Y104.082 E19.97148
G1 X111.925 Y103.835 E19.99315
G1 X112.33 Y103.604 E20.00866
G1 X112.857 Y103.205 E20.03064
G1 X113.205 Y102.857 E20.04701
G1 X113.604 Y102.33 E20.069
G1 X113.835 Y101.925 E20.0845
G1 X114.082 Y101.322 E20.10618
G1 X114.201 Y100.874 E20.1216
G1 X114.285 Y100.234 E20.14306
G1 X114.285 Y99.766 E20.15863
G1 X114.201 Y99.126 E20.1801
G1 X114.082 Y98.678 E20.19552
G1 X113.835 Y98.075 E20.21719
G1 X113.604 Y97.67 E20.2327
G1 X113.205 Y97.143 E20.25468
G1 X112.857 Y96.795 E20.27105
G1 X112.33 Y96.396 E20.29304
G1 X111.925 Y96.165 E20.30854
G1 X111.322 Y95.918 E20.33022
G1 X110.874 Y95.799 E20.34563
G1 X110.234 Y95.715 E20.3671
G1 X109.766 Y95.715 E20.38267
G1 X109.126 Y95.799 E20.40414
G1 X108.678 Y95.918 E20.41956
G1 X108.075 Y96.165 E20.44123
G1 X107.67 Y96.396 E20.45674
G1 F2700 E15.45674
